X: 3133
T: Beautiful Blackwater
R: hornpipe
M: 4/4
K: Gmajor
|:dc|BGBd cAFD|GABc dgfg|eGce dGBG|Ad^ce d^c=cA|
BGBd cAFD|GABc dgfg|eGce dDGB|ADFA G2:|
|:FE|DFAF cAFD|GABc dBGB|c2 ec B2 dB|Ad^ce d2 =cA|
BdcA BGDC|B,G,B,D GBdg|eGce dDGB|ADFA G2:|

